icons/1_Primary/Squarespace.svg

<svg xmlns="http://www.w3.org/2000/svg" width="1024" height="1024" fill="none">
   <g clip-path="url(#a)">
      <path fill="#56595B" d="M512 1024c282.77 0 512-229.23 512-512S794.77 0 512 0 0 229.23 0 512s229.23 512 512 512Z"/>
      <path fill="#fff" d="M337.12 499.74 499.36 337.5a94.277 94.277 0 0 1 133.19 0l12.64 12.65-25.28 25.28-12.64-12.65a58.5 58.5 0 0 0-82.63 0L362.41 525l-25.29-25.26ZM579 416.35l-25.28-25.28-162.27 162.24a58.428 58.428 0 0 1-82.625-.005 58.426 58.426 0 0 1 .005-82.625l140-140-25.28-25.28-140 140a94.179 94.179 0 0 0 66.766 160.161 94.179 94.179 0 0 0 66.414-26.971L579 416.35Zm161.49 29a94.291 94.291 0 0 0-133.19 0L445 607.65l25.28 25.28 162.27-162.24a58.428 58.428 0 0 1 99.423 41.409 58.43 58.43 0 0 1-16.793 41.221l-140 140 25.28 25.28 140-140a94.3 94.3 0 0 0 0-133.21M661.6 499 499.36 661.21a58.5 58.5 0 0 1-82.63 0l-12.64-12.65-25.28 25.28 12.64 12.64a94.282 94.282 0 0 0 133.19 0l162.24-162.21L661.6 499Z"/>
   </g>
   <defs>
      <clipPath id="a">
         <path fill="#fff" d="M0 0h1024v1024H0z"/>
      </clipPath>
   </defs>
</svg>

<svg width="1024" height="1024" viewBox="0 0 1024 1024" fill="none" xmlns="http://www.w3.org/2000/svg">
<g clip-path="url(#clip0_2_3543)">
<path d="M512 1024C794.77 1024 1024 794.77 1024 512C1024 229.23 794.77 0 512 0C229.23 0 0 229.23 0 512C0 794.77 229.23 1024 512 1024Z" fill="#56595B"/>
<path d="M337.12 499.74L499.36 337.5C517.035 319.862 540.985 309.957 565.955 309.957C590.925 309.957 614.875 319.862 632.55 337.5L645.19 350.15L619.91 375.43L607.27 362.78C596.303 351.84 581.445 345.696 565.955 345.696C550.464 345.696 535.607 351.84 524.64 362.78L362.41 525L337.12 499.74ZM579 416.35L553.72 391.07L391.45 553.31C380.492 564.266 365.631 570.421 350.136 570.42C334.641 570.419 319.781 564.262 308.825 553.305C297.869 542.347 291.714 527.487 291.715 511.991C291.716 496.496 297.872 481.636 308.83 470.68L448.83 330.68L423.55 305.4L283.55 445.4C266.155 463.116 256.46 486.984 256.573 511.812C256.686 536.64 266.599 560.419 284.154 577.975C301.71 595.532 325.488 605.446 350.316 605.561C375.143 605.677 399.012 595.983 416.73 578.59L579 416.35ZM740.49 445.35C722.813 427.715 698.864 417.811 673.895 417.811C648.926 417.811 624.976 427.715 607.3 445.35L445 607.65L470.28 632.93L632.55 470.69C643.536 459.873 658.353 453.837 673.771 453.897C689.188 453.957 703.958 460.108 714.86 471.01C725.762 481.912 731.913 496.681 731.973 512.099C732.033 527.517 725.997 542.333 715.18 553.32L575.18 693.32L600.46 718.6L740.46 578.6C758.099 560.921 768.005 536.968 768.005 511.995C768.005 487.022 758.099 463.068 740.46 445.39M661.6 499L499.36 661.21C488.393 672.15 473.535 678.293 458.045 678.293C442.554 678.293 427.696 672.15 416.73 661.21L404.09 648.56L378.81 673.84L391.45 686.48C409.125 704.117 433.075 714.023 458.045 714.023C483.015 714.023 506.965 704.117 524.64 686.48L686.88 524.27L661.6 499Z" fill="white"/>
</g>
<defs>
<clipPath id="clip0_2_3543">
<rect width="1024" height="1024" fill="white"/>
</clipPath>
</defs>
</svg>
